images/icon_google.svg

<svg width="24" height="24" viewBox="0 0 24 24" fill="none" xmlns="http://www.w3.org/2000/svg">
<path d="M21.8055 10.0415H21V10H12V14H17.6515C16.827 16.3285 14.6115 18 12 18C8.6865 18 6 15.3135 6 12C6 8.6865 8.6865 6 12 6C13.5295 6 14.921 6.577 15.9805 7.5195L18.809 4.691C17.023 3.0265 14.634 2 12 2C6.4775 2 2 6.4775 2 12C2 17.5225 6.4775 22 12 22C17.5225 22 22 17.5225 22 12C22 11.3295 21.931 10.675 21.8055 10.0415Z" fill="#FBC02D"/>
<path d="M3.15234 7.3455L6.43784 9.755C7.32684 7.554 9.47984 6 11.9993 6C13.5288 6 14.9203 6.577 15.9798 7.5195L18.8083 4.691C17.0223 3.0265 14.6333 2 11.9993 2C8.15834 2 4.82734 4.1685 3.15234 7.3455Z" fill="#E53935"/>
<path d="M12.0002 21.9999C14.5832 21.9999 16.9302 21.0114 18.7047 19.4039L15.6097 16.7849C14.6057 17.5454 13.3577 17.9999 12.0002 17.9999C9.39916 17.9999 7.19066 16.3414 6.35866 14.0269L3.09766 16.5394C4.75266 19.7779 8.11366 21.9999 12.0002 21.9999Z" fill="#4CAF50"/>
<path d="M21.8055 10.0415L21.7975 10H21H12V14H17.6515C17.2555 15.1185 16.536 16.083 15.608 16.7855L15.6095 16.7845L18.7045 19.4035C18.4855 19.6025 22 17 22 12C22 11.3295 21.931 10.675 21.8055 10.0415Z" fill="#1565C0"/>
</svg>

<svg xmlns="http://www.w3.org/2000/svg" width="24" height="24" fill="none"><path fill="#FBC02D" d="M21.806 10.042H21V10h-9v4h5.651A5.998 5.998 0 0 1 6 12a6 6 0 0 1 6-6c1.53 0 2.921.577 3.98 1.52l2.83-2.83A9.954 9.954 0 0 0 12 2C6.478 2 2 6.478 2 12c0 5.523 4.478 10 10 10 5.523 0 10-4.477 10-10 0-.67-.069-1.325-.195-1.959"/><path fill="#E53935" d="m3.152 7.346 3.286 2.409A5.997 5.997 0 0 1 11.999 6c1.53 0 2.921.577 3.98 1.52l2.83-2.829A9.954 9.954 0 0 0 11.998 2a9.994 9.994 0 0 0-8.847 5.346"/><path fill="#4CAF50" d="M12 22c2.583 0 4.93-.989 6.705-2.596l-3.095-2.62A5.955 5.955 0 0 1 12 18a5.997 5.997 0 0 1-5.641-3.973l-3.261 2.512C4.753 19.778 8.114 22 12 22"/><path fill="#1565C0" d="M21.806 10.042 21.797 10H12v4h5.651a6.02 6.02 0 0 1-2.043 2.785h.002l3.095 2.619C18.485 19.602 22 17 22 12c0-.67-.069-1.325-.195-1.959"/></svg>
